X: 20487
T: John Kelly's
R: reel
M: 4/4
K: Gmajor
|:DEBA B2GB|AGEF GABc|d2Bd gdd2|egdB AcBA|
G3 f GAB2|AGEF GABc|d2 Bd gedB|1 cAFA G3 E:|2 cAFA GABd||
|:egfg edBd|d2 gd B3 d|c3 A B2 dB|cBAG EDFE|
G3 f GAB2|AGEF GABC|d2 Bd gedB|1 cAFA GABd:|2 cAFA G3 E||
|:G3 F GABG|AGFE GABc|d2 Bd gd3|egdB AcBA|
DEGA B2 GB|AGFE GABc|d2 Bd gedB|1 cAFA GDFE:|2 cAFA GABd||
|:egfg edBd|d2 gd B3 d|c2 cA B2 dB|cBAG FDEF|
G3 F GABG|AGFE GABc|d2 Bd gedB|1 cAFA GABd:|2 cAFA GDFE||

